X:1
T:Lulajże Jezuniu
T:Voggejulesang fra Polen
%%score [ ( 1 2 ) ( 3 4 ) ]
L:1/8
Q:1/4=52
M:3/4
K:Eb
V:1 treble nm="Voice"
V:2 treble 
V:3 bass nm="Voice"
V:4 bass 
V:1
"^Adagio" G2 G2 G2 | B2 (AG) A2 | F2 G2 A2 | c2 B2 z2 | G2 G2 G2 | B2 (AG) A2 | F2 B3 A | %7
 A2 G2 z2 |: B2 B2 (ed) | c2 c3 B | A2 A2 c2 | c2 B2 z2 | G2 G2 G2 | B2 (AG) A2 | F2 B3 A | %15
 A2 G2 z2 :| %16
V:2
 E2 D2 E2 | E2 E2 D2 | E2 E2 E2 | E2 E2 x2 | E2 E2 E2 | E2 E2 D2 | E2 D3 D | E2 E2 x2 |: %8
w: Lu- laj- że|Je- zu- niu,|mo- ja per-|él- ko.|Lu- laj u-|lub- io- ne|me pie- sci-|dél- ko.|
 (G^F) (GA) B2 | (BA) (GA) F2 | F2 F2 F2 | G2 G2 x2 | E2 E2 E2 | (DE) (FE) D2 | E2 D3 D | %15
w: Lu- * laj- * że|Je- * zu- * niu,|lu- laj- że|lu- laj|A ty go|ma- * tu- * lu|w~pła- czu u-|
 E2 E2 x2 :| %16
w: tu- laj.|
V:3
 B,2 B,2 =B,2 | C2 C2 _B,2 | C2 C2 C2 | A,2 G,2 z2 | B,2 B,2 =A,2 | G,2 F,2 F,2 | C2 B,3 F, | %7
 C2 B,2 z2 |: E2 E2 E2 | E2 E2 D2 | (EF) (ED) (CD) | E2 B,2 z2 | B,2 B,2 B,2 | B,2 C2 B,2 | %14
 A,2 F,3 B, | C2 B,2 z2 :| %16
V:4
 E,2 E,2 E,2 | F,2 F,2 F,2 | A,2 G,2 F,2 | E,2 E,2 x2 | E,2 D,2 C,2 | C,2 =B,,2 _B,,2 | %6
 A,,2 B,,3 B,, | E,2 E,2 x2 |: E,2 (E,F,) G,2 | A,2 A,2 B,2 | C2 B,2 A,2 | E,2 E,2 x2 | %12
 (E,F,) (E,D,) (C,B,,) | G,,2 A,,2 B,,2 | =B,,2 _B,,3 D, | E,2 E,2 x2 :| %16

